openframe-frontend-core/src/components/icons-v2/brand-logos/twitter-x-square.svg

<svg width="24" height="24" viewBox="0 0 24 24" fill="none" xmlns="http://www.w3.org/2000/svg">
<path d="M19.875 6C19.875 4.96447 19.0355 4.125 18 4.125H6C4.96447 4.125 4.125 4.96447 4.125 6V18C4.125 19.0355 4.96447 19.875 6 19.875H18C19.0355 19.875 19.875 19.0355 19.875 18V6ZM22.125 18C22.125 20.2782 20.2782 22.125 18 22.125H6C3.72183 22.125 1.875 20.2782 1.875 18V6C1.875 3.72183 3.72183 1.875 6 1.875H18C20.2782 1.875 22.125 3.72183 22.125 6V18Z" fill="#888888"/>
<path d="M10.4995 5.875L10.6416 5.88379C10.9671 5.92505 11.2613 6.1073 11.4429 6.38623L13.2461 9.16064L16.2051 6.20459C16.6444 5.76549 17.3566 5.76533 17.7959 6.20459C18.2349 6.64387 18.2349 7.35613 17.7959 7.79541L14.4985 11.0898L17.9438 16.3867C18.1685 16.7325 18.1859 17.1741 17.9893 17.5366C17.7926 17.8991 17.4128 18.1253 17.0005 18.1255H13.4995C13.1189 18.1253 12.7636 17.9319 12.5562 17.6128L10.7515 14.8369L7.79541 17.7959C7.35613 18.2349 6.64387 18.2349 6.20459 17.7959C5.76533 17.3566 5.76549 16.6444 6.20459 16.2051L9.49756 12.9092L6.05664 7.61377C5.83188 7.26798 5.81466 6.8264 6.01123 6.46387C6.20801 6.10127 6.58745 5.875 7 5.875H10.4995ZM14.1104 15.8755H14.9277L9.88867 8.125H9.07275L14.1104 15.8755Z" fill="#888888"/>
</svg>

<svg xmlns="http://www.w3.org/2000/svg" width="24" height="24" fill="none" viewBox="0 0 24 24">
  <path fill="#888" d="M19.875 6c0-1.036-.84-1.875-1.875-1.875H6c-1.036 0-1.875.84-1.875 1.875v12c0 1.035.84 1.875 1.875 1.875h12c1.035 0 1.875-.84 1.875-1.875V6Zm2.25 12A4.125 4.125 0 0 1 18 22.125H6A4.125 4.125 0 0 1 1.875 18V6A4.125 4.125 0 0 1 6 1.875h12A4.125 4.125 0 0 1 22.125 6v12Z"/>
  <path fill="#888" d="m10.5 5.875.142.009c.325.041.62.223.8.502l1.804 2.775 2.96-2.956a1.125 1.125 0 0 1 1.59 1.59l-3.297 3.295 3.445 5.297A1.126 1.126 0 0 1 17 18.125h-3.5c-.381 0-.736-.193-.944-.512l-1.804-2.776-2.957 2.959a1.125 1.125 0 0 1-1.59-1.59l3.293-3.297-3.441-5.295A1.126 1.126 0 0 1 7 5.875h3.5Zm3.61 10h.818l-5.04-7.75h-.815l5.037 7.75Z"/>
</svg>
